icons/triangle-cross.svg

<svg xmlns="http://www.w3.org/2000/svg" width="24" height="24" viewBox="0 0 24 24">
  <path d="M9.37135227,3.70432092 C10.1698214,2.25255887 11.9939942,1.72296031 13.4457562,2.52142944 C13.9442354,2.79559297 14.3544842,3.20584177 14.6286477,3.70432092 L14.6286477,3.70432092 L22.2461053,17.5542438 C23.0445744,19.0060058 22.5149759,20.8301786 21.0632138,21.6286477 C20.6202789,21.8722619 20.1229665,22 19.6174576,22 L19.6174576,22 L4.38254244,22 C2.72568819,22 1.38254244,20.6568542 1.38254244,19 C1.38254244,18.4944911 1.5102805,17.9971787 1.75389472,17.5542438 L1.75389472,17.5542438 Z M10.6128994,12.2097046 C10.2206082,11.9046797 9.65337718,11.9324093 9.29289322,12.2928932 C8.90236893,12.6834175 8.90236893,13.3165825 9.29289322,13.7071068 L9.29289322,13.7071068 L10.585,15 L9.29289322,16.2928932 L9.20970461,16.3871006 C8.90467972,16.7793918 8.93240926,17.3466228 9.29289322,17.7071068 C9.68341751,18.0976311 10.3165825,18.0976311 10.7071068,17.7071068 L10.7071068,17.7071068 L12,16.415 L13.2928932,17.7071068 L13.3871006,17.7902954 C13.7793918,18.0953203 14.3466228,18.0675907 14.7071068,17.7071068 C15.0976311,17.3165825 15.0976311,16.6834175 14.7071068,16.2928932 L14.7071068,16.2928932 L13.415,15 L14.7071068,13.7071068 L14.7902954,13.6128994 C15.0953203,13.2206082 15.0675907,12.6533772 14.7071068,12.2928932 C14.3165825,11.9023689 13.6834175,11.9023689 13.2928932,12.2928932 L13.2928932,12.2928932 L12,13.585 L10.7071068,12.2928932 Z"/>
</svg>

<svg xmlns="http://www.w3.org/2000/svg" viewBox="0 0 24 24">
  <path d="M9.37 3.7a3 3 0 0 1 5.26 0l7.62 13.85A3 3 0 0 1 19.62 22H4.38a3 3 0 0 1-2.63-4.45zm1.24 8.51a1 1 0 0 0-1.32 1.5L10.6 15l-1.3 1.3-.08.09a1 1 0 0 0 1.5 1.32L12 16.4l1.3 1.3.09.08a1 1 0 0 0 1.32-1.5L13.4 15l1.3-1.3.08-.09a1 1 0 0 0-1.5-1.32L12 13.6l-1.3-1.3z"/>
</svg>
